packages/tokens/icons/save/size32Px.svg

<svg viewBox="0 0 32 32" fill="none" xmlns="http://www.w3.org/2000/svg" width="1em" height="1em"><path d="M3.5 5C3.5 4.17157 4.17157 3.5 5 3.5L23.1716 3.5C23.5694 3.5 23.9509 3.65804 24.2322 3.93934L28.0607 7.76777C28.342 8.04907 28.5 8.4306 28.5 8.82843L28.5 27C28.5 27.8284 27.8284 28.5 27 28.5L5 28.5C4.17157 28.5 3.5 27.8284 3.5 27L3.5 5Z" stroke="currentColor"/><path d="M7.5 4C7.5 3.72386 7.72386 3.5 8 3.5L18 3.5C18.2761 3.5 18.5 3.72386 18.5 4V8C18.5 8.82843 17.8284 9.5 17 9.5L9 9.5C8.17157 9.5 7.5 8.82843 7.5 8L7.5 4Z" stroke="currentColor"/><line x1="14.5" y1="3" x2="14.5" y2="9" stroke="currentColor"/><path d="M7.5 28C7.5 28.2761 7.72386 28.5 8 28.5L24 28.5C24.2761 28.5 24.5 28.2761 24.5 28L24.5 16C24.5 15.1716 23.8284 14.5 23 14.5L9 14.5C8.17157 14.5 7.5 15.1716 7.5 16L7.5 28Z" stroke="currentColor"/><line x1="10.5" y1="20.5" x2="21.5" y2="20.5" stroke="currentColor" stroke-linecap="round"/><line x1="10.5" y1="23.5" x2="21.5" y2="23.5" stroke="currentColor" stroke-linecap="round"/></svg>

<svg xmlns="http://www.w3.org/2000/svg" fill="none" viewBox="0 0 32 32" width="1em" height="1em"><path stroke="currentColor" d="M3.5 5A1.5 1.5 0 0 1 5 3.5h18.172a1.5 1.5 0 0 1 1.06.44l3.829 3.828a1.5 1.5 0 0 1 .439 1.06V27a1.5 1.5 0 0 1-1.5 1.5H5A1.5 1.5 0 0 1 3.5 27V5Z"/><path stroke="currentColor" d="M7.5 4a.5.5 0 0 1 .5-.5h10a.5.5 0 0 1 .5.5v4A1.5 1.5 0 0 1 17 9.5H9A1.5 1.5 0 0 1 7.5 8V4Zm7-1v6m-7 19a.5.5 0 0 0 .5.5h16a.5.5 0 0 0 .5-.5V16a1.5 1.5 0 0 0-1.5-1.5H9A1.5 1.5 0 0 0 7.5 16v12Z"/><path stroke="currentColor" stroke-linecap="round" d="M10.5 20.5h11m-11 3h11"/></svg>
